src/images/quickhire.svg

<svg width="212" height="53" viewBox="0 0 212 53" fill="none" xmlns="http://www.w3.org/2000/svg">
<path d="M22.5 27L46.5 15L24 0L0 13.5L22.5 27Z" fill="#444444"/>
<path d="M0 13.5V40.5L23.5 53L22.5 27L0 13.5Z" fill="#444444"/>
<path d="M48 40.5L46.5 15L22.5 27L23.5 53L48 40.5Z" fill="#444444"/>
<path d="M48 40.5L46.5 15L22.5 27L23.5 53L48 40.5Z" fill="#585454"/>
<path d="M22.5 27L46.5 15L24 0L0 13.5L22.5 27Z" fill="#585454"/>
<path d="M48 40.5L46.5 15L22.5 27L23.5 53L48 40.5Z" fill="#646363"/>
<path d="M33.5879 26.585C33.5879 27.5811 33.4658 28.543 33.2217 29.4707C32.9873 30.3887 32.6504 31.2578 32.2109 32.0781C31.7715 32.8984 31.2441 33.6553 30.6289 34.3486C30.0234 35.0322 29.3496 35.6279 28.6074 36.1357C28.7441 36.5947 28.915 37.0244 29.1201 37.4248C29.335 37.835 29.584 38.1914 29.8672 38.4941C30.1602 38.8066 30.4824 39.0508 30.834 39.2266C31.1855 39.4023 31.5664 39.4902 31.9766 39.4902C32.1523 39.4902 32.333 39.4658 32.5186 39.417C32.7041 39.3779 32.8799 39.3047 33.0459 39.1973C33.1045 39.1484 33.168 39.1143 33.2363 39.0947C33.3145 39.0752 33.3828 39.0654 33.4414 39.0654C33.6367 39.0654 33.8125 39.1338 33.9688 39.2705C34.1348 39.417 34.2178 39.6025 34.2178 39.8271C34.2178 40.1104 34.1006 40.3301 33.8662 40.4863C33.583 40.6621 33.2803 40.7988 32.958 40.8965C32.6357 40.9941 32.3086 41.043 31.9766 41.043C31.4102 41.043 30.8828 40.9355 30.3945 40.7207C29.9062 40.5059 29.4619 40.2129 29.0615 39.8418C28.6611 39.4707 28.3047 39.0312 27.9922 38.5234C27.6895 38.0254 27.4355 37.4883 27.2305 36.9121C26.5664 37.2246 25.8779 37.4639 25.165 37.6299C24.4619 37.8057 23.7295 37.8936 22.9678 37.8936C22.001 37.8936 21.0635 37.7568 20.1553 37.4834C19.2568 37.2197 18.417 36.8438 17.6357 36.3555C16.8545 35.8574 16.1367 35.2666 15.4824 34.583C14.8379 33.8896 14.2861 33.1279 13.8271 32.2979C13.3682 31.458 13.0117 30.5547 12.7578 29.5879C12.5039 28.6211 12.377 27.6201 12.377 26.585C12.377 25.5498 12.5039 24.5488 12.7578 23.582C13.0117 22.6152 13.3682 21.7168 13.8271 20.8867C14.2861 20.0469 14.8379 19.2852 15.4824 18.6016C16.1367 17.9082 16.8545 17.3174 17.6357 16.8291C18.417 16.3311 19.2568 15.9502 20.1553 15.6865C21.0635 15.4131 22.001 15.2764 22.9678 15.2764C23.9932 15.2764 24.9648 15.4229 25.8828 15.7158C26.8105 16.0088 27.665 16.4141 28.4463 16.9316C29.2373 17.4492 29.9502 18.0645 30.585 18.7773C31.2197 19.4902 31.7568 20.2666 32.1963 21.1064C32.6455 21.9463 32.9873 22.8301 33.2217 23.7578C33.4658 24.6855 33.5879 25.6279 33.5879 26.585ZM32.0645 26.585C32.0645 25.9209 31.9766 25.2275 31.8008 24.5049C31.625 23.7725 31.376 23.0596 31.0537 22.3662C30.7412 21.6631 30.3604 20.999 29.9111 20.374C29.4717 19.7393 28.9834 19.1875 28.4463 18.7188C27.9189 18.2402 27.3525 17.8643 26.7471 17.5908C26.1416 17.3076 25.5215 17.166 24.8867 17.166C24.0273 17.166 23.251 17.293 22.5576 17.5469C21.8643 17.8008 21.2441 18.1475 20.6973 18.5869C20.1602 19.0166 19.6914 19.5293 19.291 20.125C18.8906 20.7207 18.5586 21.3604 18.2949 22.0439C18.041 22.7178 17.8506 23.4258 17.7236 24.168C17.5967 24.9004 17.5332 25.6279 17.5332 26.3506C17.5332 27.1416 17.5771 27.9326 17.665 28.7236C17.7627 29.5146 17.9189 30.2764 18.1338 31.0088C18.3584 31.7314 18.6416 32.4102 18.9834 33.0449C19.335 33.6699 19.7646 34.2168 20.2725 34.6855C20.7803 35.1445 21.3711 35.5059 22.0449 35.7695C22.7285 36.0332 23.5049 36.165 24.374 36.165C24.8135 36.165 25.2383 36.1113 25.6484 36.0039C26.0684 35.8867 26.4736 35.7305 26.8643 35.5352C26.6299 34.793 26.293 34.2266 25.8535 33.8359C25.4141 33.4453 24.8428 33.25 24.1396 33.25C23.915 33.25 23.7002 33.2695 23.4951 33.3086C23.2998 33.3477 23.1191 33.3916 22.9531 33.4404C22.7676 33.4893 22.5918 33.5479 22.4258 33.6162C22.3086 33.6748 22.2012 33.7041 22.1035 33.7041C21.918 33.7041 21.7422 33.6309 21.5762 33.4844C21.4102 33.3281 21.3271 33.1377 21.3271 32.9131C21.3271 32.7764 21.3662 32.6445 21.4443 32.5176C21.5225 32.3906 21.6299 32.293 21.7666 32.2246C21.7764 32.2148 21.8447 32.1855 21.9717 32.1367C22.1084 32.0781 22.2842 32.0195 22.499 31.9609C22.7139 31.9023 22.9629 31.8486 23.2461 31.7998C23.5293 31.751 23.8271 31.7266 24.1396 31.7266C25.1162 31.7266 25.9414 31.9854 26.6152 32.5029C27.2988 33.0205 27.8262 33.748 28.1973 34.6855C28.7637 34.2168 29.2812 33.6699 29.75 33.0449C30.2285 32.4199 30.6387 31.751 30.9805 31.0381C31.3223 30.3252 31.5859 29.5879 31.7715 28.8262C31.9668 28.0645 32.0645 27.3174 32.0645 26.585Z" fill="white"/>
<path d="M22.7949 27L46.7949 15L24.2949 0L0.294922 13.5L22.7949 27Z" fill="#EC3944"/>
<path d="M0.294922 13.5V40.5L23.7949 53L22.7949 27L0.294922 13.5Z" fill="#EC3944"/>
<path d="M48.2949 40.5L46.7949 15L22.7949 27L23.7949 53L48.2949 40.5Z" fill="#EC3944"/>
<path d="M48.2949 40.5L46.7949 15L22.7949 27L23.7949 53L48.2949 40.5Z" fill="#EF7880"/>
<path d="M22.7949 27L46.7949 15L24.2949 0L0.294922 13.5L22.7949 27Z" fill="#EF7880"/>
<path d="M48.2949 40.5L46.7949 15L22.7949 27L23.7949 53L48.2949 40.5Z" fill="#F7626B"/>
<path d="M33.8828 26.585C33.8828 27.5811 33.7607 28.543 33.5166 29.4707C33.2822 30.3887 32.9453 31.2578 32.5059 32.0781C32.0664 32.8984 31.5391 33.6553 30.9238 34.3486C30.3184 35.0322 29.6445 35.6279 28.9023 36.1357C29.0391 36.5947 29.21 37.0244 29.415 37.4248C29.6299 37.835 29.8789 38.1914 30.1621 38.4941C30.4551 38.8066 30.7773 39.0508 31.1289 39.2266C31.4805 39.4023 31.8613 39.4902 32.2715 39.4902C32.4473 39.4902 32.6279 39.4658 32.8135 39.417C32.999 39.3779 33.1748 39.3047 33.3408 39.1973C33.3994 39.1484 33.4629 39.1143 33.5312 39.0947C33.6094 39.0752 33.6777 39.0654 33.7363 39.0654C33.9316 39.0654 34.1074 39.1338 34.2637 39.2705C34.4297 39.417 34.5127 39.6025 34.5127 39.8271C34.5127 40.1104 34.3955 40.3301 34.1611 40.4863C33.8779 40.6621 33.5752 40.7988 33.2529 40.8965C32.9307 40.9941 32.6035 41.043 32.2715 41.043C31.7051 41.043 31.1777 40.9355 30.6895 40.7207C30.2012 40.5059 29.7568 40.2129 29.3564 39.8418C28.9561 39.4707 28.5996 39.0312 28.2871 38.5234C27.9844 38.0254 27.7305 37.4883 27.5254 36.9121C26.8613 37.2246 26.1729 37.4639 25.46 37.6299C24.7568 37.8057 24.0244 37.8936 23.2627 37.8936C22.2959 37.8936 21.3584 37.7568 20.4502 37.4834C19.5518 37.2197 18.7119 36.8438 17.9307 36.3555C17.1494 35.8574 16.4316 35.2666 15.7773 34.583C15.1328 33.8896 14.5811 33.1279 14.1221 32.2979C13.6631 31.458 13.3066 30.5547 13.0527 29.5879C12.7988 28.6211 12.6719 27.6201 12.6719 26.585C12.6719 25.5498 12.7988 24.5488 13.0527 23.582C13.3066 22.6152 13.6631 21.7168 14.1221 20.8867C14.5811 20.0469 15.1328 19.2852 15.7773 18.6016C16.4316 17.9082 17.1494 17.3174 17.9307 16.8291C18.7119 16.3311 19.5518 15.9502 20.4502 15.6865C21.3584 15.4131 22.2959 15.2764 23.2627 15.2764C24.2881 15.2764 25.2598 15.4229 26.1777 15.7158C27.1055 16.0088 27.96 16.4141 28.7412 16.9316C29.5322 17.4492 30.2451 18.0645 30.8799 18.7773C31.5146 19.4902 32.0518 20.2666 32.4912 21.1064C32.9404 21.9463 33.2822 22.8301 33.5166 23.7578C33.7607 24.6855 33.8828 25.6279 33.8828 26.585ZM32.3594 26.585C32.3594 25.9209 32.2715 25.2275 32.0957 24.5049C31.9199 23.7725 31.6709 23.0596 31.3486 22.3662C31.0361 21.6631 30.6553 20.999 30.2061 20.374C29.7666 19.7393 29.2783 19.1875 28.7412 18.7188C28.2139 18.2402 27.6475 17.8643 27.042 17.5908C26.4365 17.3076 25.8164 17.166 25.1816 17.166C24.3223 17.166 23.5459 17.293 22.8525 17.5469C22.1592 17.8008 21.5391 18.1475 20.9922 18.5869C20.4551 19.0166 19.9863 19.5293 19.5859 20.125C19.1855 20.7207 18.8535 21.3604 18.5898 22.0439C18.3359 22.7178 18.1455 23.4258 18.0186 24.168C17.8916 24.9004 17.8281 25.6279 17.8281 26.3506C17.8281 27.1416 17.8721 27.9326 17.96 28.7236C18.0576 29.5146 18.2139 30.2764 18.4287 31.0088C18.6533 31.7314 18.9365 32.4102 19.2783 33.0449C19.6299 33.6699 20.0596 34.2168 20.5674 34.6855C21.0752 35.1445 21.666 35.5059 22.3398 35.7695C23.0234 36.0332 23.7998 36.165 24.6689 36.165C25.1084 36.165 25.5332 36.1113 25.9434 36.0039C26.3633 35.8867 26.7686 35.7305 27.1592 35.5352C26.9248 34.793 26.5879 34.2266 26.1484 33.8359C25.709 33.4453 25.1377 33.25 24.4346 33.25C24.21 33.25 23.9951 33.2695 23.79 33.3086C23.5947 33.3477 23.4141 33.3916 23.248 33.4404C23.0625 33.4893 22.8867 33.5479 22.7207 33.6162C22.6035 33.6748 22.4961 33.7041 22.3984 33.7041C22.2129 33.7041 22.0371 33.6309 21.8711 33.4844C21.7051 33.3281 21.6221 33.1377 21.6221 32.9131C21.6221 32.7764 21.6611 32.6445 21.7393 32.5176C21.8174 32.3906 21.9248 32.293 22.0615 32.2246C22.0713 32.2148 22.1396 32.1855 22.2666 32.1367C22.4033 32.0781 22.5791 32.0195 22.7939 31.9609C23.0088 31.9023 23.2578 31.8486 23.541 31.7998C23.8242 31.751 24.1221 31.7266 24.4346 31.7266C25.4111 31.7266 26.2363 31.9854 26.9102 32.5029C27.5938 33.0205 28.1211 33.748 28.4922 34.6855C29.0586 34.2168 29.5762 33.6699 30.0449 33.0449C30.5234 32.4199 30.9336 31.751 31.2754 31.0381C31.6172 30.3252 31.8809 29.5879 32.0664 28.8262C32.2617 28.0645 32.3594 27.3174 32.3594 26.585Z" fill="white"/>
<path d="M62.4 26.208C62.4 27.4773 62.5707 28.6187 62.912 29.632C63.2533 30.6347 63.7387 31.488 64.368 32.192C65.008 32.8853 65.776 33.4187 66.672 33.792C67.5787 34.1653 68.5973 34.352 69.728 34.352C70.8587 34.352 71.872 34.1653 72.768 33.792C73.6747 33.4187 74.4427 32.8853 75.072 32.192C75.7013 31.488 76.1867 30.6347 76.528 29.632C76.8693 28.6187 77.04 27.4773 77.04 26.208C77.04 24.9387 76.8693 23.8027 76.528 22.8C76.1867 21.7867 75.7013 20.928 75.072 20.224C74.4427 19.52 73.6747 18.9813 72.768 18.608C71.872 18.2347 70.8587 18.048 69.728 18.048C68.5973 18.048 67.5787 18.2347 66.672 18.608C65.776 18.9813 65.008 19.52 64.368 20.224C63.7387 20.928 63.2533 21.7867 62.912 22.8C62.5707 23.8027 62.4 24.9387 62.4 26.208ZM82.64 42.304H79.088C78.576 42.304 78.112 42.2347 77.696 42.096C77.2907 41.9573 76.9173 41.7013 76.576 41.328L73.184 37.584C72.64 37.7333 72.08 37.8453 71.504 37.92C70.9387 37.9947 70.3467 38.032 69.728 38.032C67.9787 38.032 66.384 37.7387 64.944 37.152C63.504 36.5547 62.2667 35.728 61.232 34.672C60.208 33.616 59.4133 32.368 58.848 30.928C58.2827 29.4773 58 27.904 58 26.208C58 24.512 58.2827 22.944 58.848 21.504C59.4133 20.0533 60.208 18.8 61.232 17.744C62.2667 16.688 63.504 15.8667 64.944 15.28C66.384 14.6827 67.9787 14.384 69.728 14.384C70.9013 14.384 72.0053 14.5227 73.04 14.8C74.0747 15.0667 75.024 15.4507 75.888 15.952C76.752 16.4427 77.5253 17.0453 78.208 17.76C78.9013 18.464 79.488 19.2533 79.968 20.128C80.448 21.0027 80.8107 21.952 81.056 22.976C81.312 24 81.44 25.0773 81.44 26.208C81.44 27.2427 81.3333 28.2347 81.12 29.184C80.9067 30.1227 80.5973 31.0027 80.192 31.824C79.7973 32.6453 79.312 33.4027 78.736 34.096C78.16 34.7787 77.504 35.3813 76.768 35.904L82.64 42.304ZM98.755 21.36V37.776H96.339C95.8163 37.776 95.4857 37.536 95.347 37.056L95.075 35.744C94.403 36.4267 93.6617 36.9813 92.851 37.408C92.0403 37.824 91.0857 38.032 89.987 38.032C89.091 38.032 88.2963 37.8827 87.603 37.584C86.9203 37.2747 86.3443 36.8427 85.875 36.288C85.4057 35.7333 85.0483 35.0773 84.803 34.32C84.5683 33.552 84.451 32.7093 84.451 31.792V21.36H88.403V31.792C88.403 32.7947 88.6323 33.5733 89.091 34.128C89.5603 34.672 90.259 34.944 91.187 34.944C91.8697 34.944 92.5097 34.7947 93.107 34.496C93.7043 34.1867 94.2697 33.7653 94.803 33.232V21.36H98.755ZM107.02 21.36V37.776H103.052V21.36H107.02ZM107.563 16.576C107.563 16.9173 107.494 17.2373 107.355 17.536C107.217 17.8347 107.03 18.096 106.796 18.32C106.572 18.544 106.305 18.7253 105.995 18.864C105.686 18.992 105.356 19.056 105.004 19.056C104.662 19.056 104.337 18.992 104.028 18.864C103.729 18.7253 103.467 18.544 103.243 18.32C103.019 18.096 102.838 17.8347 102.7 17.536C102.572 17.2373 102.507 16.9173 102.507 16.576C102.507 16.224 102.572 15.8933 102.7 15.584C102.838 15.2747 103.019 15.008 103.243 14.784C103.467 14.56 103.729 14.384 104.028 14.256C104.337 14.1173 104.662 14.048 105.004 14.048C105.356 14.048 105.686 14.1173 105.995 14.256C106.305 14.384 106.572 14.56 106.796 14.784C107.03 15.008 107.217 15.2747 107.355 15.584C107.494 15.8933 107.563 16.224 107.563 16.576ZM123.058 24.832C122.941 24.9813 122.824 25.0987 122.706 25.184C122.6 25.2693 122.44 25.312 122.226 25.312C122.024 25.312 121.826 25.2533 121.634 25.136C121.442 25.008 121.213 24.8693 120.946 24.72C120.68 24.56 120.36 24.4213 119.986 24.304C119.624 24.176 119.17 24.112 118.626 24.112C117.933 24.112 117.325 24.24 116.803 24.496C116.28 24.7413 115.843 25.0987 115.491 25.568C115.149 26.0373 114.893 26.608 114.722 27.28C114.552 27.9413 114.466 28.6933 114.466 29.536C114.466 30.4107 114.557 31.1893 114.738 31.872C114.93 32.5547 115.203 33.1307 115.555 33.6C115.907 34.0587 116.333 34.4107 116.834 34.656C117.336 34.8907 117.901 35.008 118.53 35.008C119.16 35.008 119.666 34.9333 120.05 34.784C120.445 34.624 120.776 34.4533 121.042 34.272C121.309 34.08 121.538 33.9093 121.73 33.76C121.933 33.6 122.157 33.52 122.402 33.52C122.722 33.52 122.962 33.6427 123.122 33.888L124.258 35.328C123.821 35.84 123.346 36.272 122.834 36.624C122.322 36.9653 121.789 37.2427 121.235 37.456C120.691 37.6587 120.125 37.8027 119.539 37.888C118.963 37.9733 118.387 38.016 117.811 38.016C116.797 38.016 115.842 37.8293 114.946 37.456C114.05 37.072 113.267 36.5173 112.595 35.792C111.923 35.0667 111.389 34.1813 110.994 33.136C110.61 32.08 110.418 30.88 110.418 29.536C110.418 28.3307 110.589 27.216 110.931 26.192C111.283 25.1573 111.794 24.2667 112.466 23.52C113.138 22.7627 113.971 22.1707 114.963 21.744C115.955 21.3173 117.096 21.104 118.387 21.104C119.613 21.104 120.685 21.3013 121.603 21.696C122.531 22.0907 123.362 22.656 124.098 23.392L123.058 24.832ZM130.938 14V27.616H131.674C131.941 27.616 132.149 27.584 132.298 27.52C132.458 27.4453 132.618 27.3013 132.778 27.088L136.858 22.048C137.029 21.824 137.215 21.6533 137.418 21.536C137.631 21.4187 137.903 21.36 138.234 21.36H141.85L136.746 27.456C136.383 27.936 135.989 28.304 135.562 28.56C135.786 28.72 135.983 28.9067 136.154 29.12C136.335 29.3333 136.506 29.5627 136.666 29.808L142.138 37.776H138.57C138.261 37.776 137.994 37.728 137.77 37.632C137.546 37.5253 137.359 37.3387 137.21 37.072L133.018 30.848C132.869 30.6027 132.714 30.4427 132.554 30.368C132.394 30.2933 132.154 30.256 131.834 30.256H130.938V37.776H126.986V14H130.938ZM172.489 14.64V37.776H168.169V27.664H157.305V37.776H152.985V14.64H157.305V24.592H168.169V14.64H172.489ZM181.145 21.36V37.776H177.177V21.36H181.145ZM181.689 16.576C181.689 16.9173 181.619 17.2373 181.481 17.536C181.342 17.8347 181.155 18.096 180.921 18.32C180.697 18.544 180.43 18.7253 180.121 18.864C179.811 18.992 179.481 19.056 179.129 19.056C178.787 19.056 178.462 18.992 178.153 18.864C177.854 18.7253 177.593 18.544 177.369 18.32C177.145 18.096 176.963 17.8347 176.825 17.536C176.697 17.2373 176.633 16.9173 176.633 16.576C176.633 16.224 176.697 15.8933 176.825 15.584C176.963 15.2747 177.145 15.008 177.369 14.784C177.593 14.56 177.854 14.384 178.153 14.256C178.462 14.1173 178.787 14.048 179.129 14.048C179.481 14.048 179.811 14.1173 180.121 14.256C180.43 14.384 180.697 14.56 180.921 14.784C181.155 15.008 181.342 15.2747 181.481 15.584C181.619 15.8933 181.689 16.224 181.689 16.576ZM189.152 24.208C189.664 23.2267 190.272 22.4587 190.976 21.904C191.68 21.3387 192.512 21.056 193.472 21.056C194.229 21.056 194.837 21.2213 195.296 21.552L195.04 24.512C194.986 24.704 194.906 24.8427 194.8 24.928C194.704 25.0027 194.57 25.04 194.4 25.04C194.24 25.04 194 25.0133 193.68 24.96C193.37 24.9067 193.066 24.88 192.768 24.88C192.33 24.88 191.941 24.944 191.6 25.072C191.258 25.2 190.949 25.3867 190.672 25.632C190.405 25.8667 190.165 26.1547 189.952 26.496C189.749 26.8373 189.557 27.2267 189.376 27.664V37.776H185.424V21.36H187.744C188.149 21.36 188.432 21.4347 188.592 21.584C188.752 21.7227 188.858 21.9787 188.912 22.352L189.152 24.208ZM207.718 27.68C207.718 27.168 207.644 26.688 207.494 26.24C207.356 25.7813 207.142 25.3813 206.854 25.04C206.566 24.6987 206.198 24.432 205.75 24.24C205.313 24.0373 204.801 23.936 204.214 23.936C203.073 23.936 202.172 24.2613 201.51 24.912C200.86 25.5627 200.444 26.4853 200.262 27.68H207.718ZM200.182 30.064C200.246 30.9067 200.396 31.6373 200.63 32.256C200.865 32.864 201.174 33.3707 201.558 33.776C201.942 34.1707 202.396 34.4693 202.918 34.672C203.452 34.864 204.038 34.96 204.678 34.96C205.318 34.96 205.868 34.8853 206.326 34.736C206.796 34.5867 207.201 34.4213 207.542 34.24C207.894 34.0587 208.198 33.8933 208.454 33.744C208.721 33.5947 208.977 33.52 209.222 33.52C209.553 33.52 209.798 33.6427 209.958 33.888L211.094 35.328C210.657 35.84 210.166 36.272 209.622 36.624C209.078 36.9653 208.508 37.2427 207.91 37.456C207.324 37.6587 206.721 37.8027 206.102 37.888C205.494 37.9733 204.902 38.016 204.326 38.016C203.185 38.016 202.124 37.8293 201.142 37.456C200.161 37.072 199.308 36.512 198.582 35.776C197.857 35.0293 197.286 34.112 196.87 33.024C196.454 31.9253 196.246 30.656 196.246 29.216C196.246 28.096 196.428 27.0453 196.79 26.064C197.153 25.072 197.67 24.2133 198.342 23.488C199.025 22.752 199.852 22.1707 200.822 21.744C201.804 21.3173 202.908 21.104 204.134 21.104C205.169 21.104 206.124 21.2693 206.998 21.6C207.873 21.9307 208.625 22.416 209.254 23.056C209.884 23.6853 210.374 24.464 210.726 25.392C211.089 26.3093 211.27 27.36 211.27 28.544C211.27 29.1413 211.206 29.5467 211.078 29.76C210.95 29.9627 210.705 30.064 210.342 30.064H200.182Z" fill="#131336"/>
</svg>

<svg id="quickhire" xmlns="http://www.w3.org/2000/svg" width="48.295" height="53" viewBox="0 0 48.295 53">
  <path id="Caminho_1" data-name="Caminho 1" d="M22.5,27l24-12L24,0,0,13.5Z" fill="#444"/>
  <path id="Caminho_2" data-name="Caminho 2" d="M0,13.5v27L23.5,53l-1-26Z" fill="#444"/>
  <path id="Caminho_3" data-name="Caminho 3" d="M48,40.5,46.5,15l-24,12,1,26Z" fill="#444"/>
  <path id="Caminho_4" data-name="Caminho 4" d="M48,40.5,46.5,15l-24,12,1,26Z" fill="#585454"/>
  <path id="Caminho_5" data-name="Caminho 5" d="M22.5,27l24-12L24,0,0,13.5Z" fill="#585454"/>
  <path id="Caminho_6" data-name="Caminho 6" d="M48,40.5,46.5,15l-24,12,1,26Z" fill="#646363"/>
  <path id="Caminho_7" data-name="Caminho 7" d="M33.588,26.585a11.293,11.293,0,0,1-.366,2.886,11.549,11.549,0,0,1-1.011,2.607,11.812,11.812,0,0,1-1.582,2.271,10.96,10.96,0,0,1-2.021,1.787,7.543,7.543,0,0,0,.513,1.289,4.843,4.843,0,0,0,.747,1.069,3.423,3.423,0,0,0,.967.733,2.52,2.52,0,0,0,1.143.264,2.128,2.128,0,0,0,.542-.073,1.555,1.555,0,0,0,.527-.22.519.519,0,0,1,.19-.1.863.863,0,0,1,.205-.029.78.78,0,0,1,.527.205.71.71,0,0,1,.249.557.748.748,0,0,1-.352.659,3.809,3.809,0,0,1-.908.41,3.369,3.369,0,0,1-.981.146,3.885,3.885,0,0,1-1.582-.322,4.784,4.784,0,0,1-1.333-.879,6.248,6.248,0,0,1-1.069-1.318,8.718,8.718,0,0,1-.762-1.611,10.352,10.352,0,0,1-2.065.718,9.025,9.025,0,0,1-2.2.264,9.7,9.7,0,0,1-2.812-.41,10.092,10.092,0,0,1-2.52-1.128A11.023,11.023,0,0,1,13.827,32.3a11.967,11.967,0,0,1-1.069-2.71,11.886,11.886,0,0,1,1.069-8.7A11.018,11.018,0,0,1,15.482,18.6a10.893,10.893,0,0,1,2.153-1.773,10.015,10.015,0,0,1,5.332-1.553,9.533,9.533,0,0,1,2.915.439,10.152,10.152,0,0,1,2.564,1.216,10.7,10.7,0,0,1,2.139,1.846A11.532,11.532,0,0,1,32.2,21.106a11.654,11.654,0,0,1,1.025,2.651A11.065,11.065,0,0,1,33.588,26.585Zm-1.523,0A8.8,8.8,0,0,0,31.8,24.5a11.345,11.345,0,0,0-.747-2.139,11.191,11.191,0,0,0-1.143-1.992,8.921,8.921,0,0,0-1.465-1.655,6.517,6.517,0,0,0-1.7-1.128,4.347,4.347,0,0,0-1.86-.425,6.736,6.736,0,0,0-2.329.381,6.53,6.53,0,0,0-1.86,1.04,6.84,6.84,0,0,0-1.406,1.538,9.661,9.661,0,0,0-1,1.919,11.521,11.521,0,0,0-.571,2.124,12.764,12.764,0,0,0-.19,2.183,21.47,21.47,0,0,0,.132,2.373,14.352,14.352,0,0,0,.469,2.285,11.45,11.45,0,0,0,.85,2.036,6.653,6.653,0,0,0,1.289,1.641,5.727,5.727,0,0,0,1.772,1.084,6.435,6.435,0,0,0,2.329.4A5.009,5.009,0,0,0,25.648,36a6.8,6.8,0,0,0,1.216-.469,3.708,3.708,0,0,0-1.011-1.7,2.483,2.483,0,0,0-1.714-.586,3.436,3.436,0,0,0-.645.059q-.293.059-.542.132a4.2,4.2,0,0,0-.527.176.729.729,0,0,1-.322.088.787.787,0,0,1-.527-.22.755.755,0,0,1-.249-.571.744.744,0,0,1,.117-.4.78.78,0,0,1,.322-.293,1.336,1.336,0,0,1,.205-.088,4.132,4.132,0,0,1,.527-.176q.322-.088.747-.161a5.257,5.257,0,0,1,.894-.073,3.944,3.944,0,0,1,2.476.776A4.935,4.935,0,0,1,28.2,34.686a9.569,9.569,0,0,0,1.553-1.641,11.4,11.4,0,0,0,1.23-2.007,11.28,11.28,0,0,0,.791-2.212A9,9,0,0,0,32.064,26.585Z" fill="#fff"/>
  <path id="Caminho_8" data-name="Caminho 8" d="M22.795,27l24-12L24.295,0l-24,13.5Z" fill="#ec3944"/>
  <path id="Caminho_9" data-name="Caminho 9" d="M.295,13.5v27L23.795,53l-1-26Z" fill="#ec3944"/>
  <path id="Caminho_10" data-name="Caminho 10" d="M48.295,40.5,46.795,15l-24,12,1,26Z" fill="#ec3944"/>
  <path id="Caminho_11" data-name="Caminho 11" d="M48.295,40.5,46.795,15l-24,12,1,26Z" fill="#ef7880"/>
  <path id="Caminho_12" data-name="Caminho 12" d="M22.795,27l24-12L24.295,0l-24,13.5Z" fill="#ef7880"/>
  <path id="Caminho_13" data-name="Caminho 13" d="M48.295,40.5,46.795,15l-24,12,1,26Z" fill="#f7626b"/>
  <path id="Caminho_14" data-name="Caminho 14" d="M33.883,26.585a11.293,11.293,0,0,1-.366,2.886,11.553,11.553,0,0,1-1.011,2.607,11.813,11.813,0,0,1-1.582,2.271A10.957,10.957,0,0,1,28.9,36.136a7.559,7.559,0,0,0,.513,1.289,4.843,4.843,0,0,0,.747,1.069,3.423,3.423,0,0,0,.967.733,2.52,2.52,0,0,0,1.143.264,2.127,2.127,0,0,0,.542-.073,1.555,1.555,0,0,0,.527-.22.518.518,0,0,1,.19-.1.863.863,0,0,1,.205-.029.78.78,0,0,1,.527.205.71.71,0,0,1,.249.557.748.748,0,0,1-.352.659,3.809,3.809,0,0,1-.908.41,3.368,3.368,0,0,1-.981.146,3.884,3.884,0,0,1-1.582-.322,4.785,4.785,0,0,1-1.333-.879,6.251,6.251,0,0,1-1.069-1.318,8.725,8.725,0,0,1-.762-1.611,10.351,10.351,0,0,1-2.065.718,9.027,9.027,0,0,1-2.2.264,9.7,9.7,0,0,1-2.812-.41,10.091,10.091,0,0,1-2.519-1.128A11.021,11.021,0,0,1,14.122,32.3a11.963,11.963,0,0,1-1.069-2.71,11.886,11.886,0,0,1,1.069-8.7A11.018,11.018,0,0,1,15.777,18.6a10.89,10.89,0,0,1,2.153-1.773,10.014,10.014,0,0,1,5.332-1.553,9.532,9.532,0,0,1,2.915.439,10.149,10.149,0,0,1,2.563,1.216,10.7,10.7,0,0,1,2.139,1.846,11.528,11.528,0,0,1,1.611,2.329,11.654,11.654,0,0,1,1.025,2.651A11.065,11.065,0,0,1,33.883,26.585Zm-1.523,0A8.8,8.8,0,0,0,32.1,24.5a11.345,11.345,0,0,0-.747-2.139,11.2,11.2,0,0,0-1.142-1.992,8.925,8.925,0,0,0-1.465-1.655,6.514,6.514,0,0,0-1.7-1.128,4.347,4.347,0,0,0-1.86-.425,6.736,6.736,0,0,0-2.329.381,6.531,6.531,0,0,0-1.86,1.04,6.839,6.839,0,0,0-1.406,1.538,9.661,9.661,0,0,0-1,1.919,11.513,11.513,0,0,0-.571,2.124,12.754,12.754,0,0,0-.191,2.183,21.47,21.47,0,0,0,.132,2.373,14.352,14.352,0,0,0,.469,2.285,11.45,11.45,0,0,0,.85,2.036,6.655,6.655,0,0,0,1.289,1.641A5.726,5.726,0,0,0,22.34,35.77a6.435,6.435,0,0,0,2.329.4A5.011,5.011,0,0,0,25.943,36a6.8,6.8,0,0,0,1.216-.469,3.708,3.708,0,0,0-1.011-1.7,2.483,2.483,0,0,0-1.714-.586,3.437,3.437,0,0,0-.645.059q-.293.059-.542.132a4.2,4.2,0,0,0-.527.176.729.729,0,0,1-.322.088.787.787,0,0,1-.527-.22.755.755,0,0,1-.249-.571.744.744,0,0,1,.117-.4.779.779,0,0,1,.322-.293,1.336,1.336,0,0,1,.205-.088,4.132,4.132,0,0,1,.527-.176q.322-.088.747-.161a5.258,5.258,0,0,1,.894-.073,3.944,3.944,0,0,1,2.476.776,4.934,4.934,0,0,1,1.582,2.183,9.565,9.565,0,0,0,1.553-1.641,11.4,11.4,0,0,0,1.23-2.007,11.273,11.273,0,0,0,.791-2.212A9,9,0,0,0,32.359,26.585Z" fill="#fff"/>
</svg>
